X: 1
T: Gabe O'Sullivans
M: 4/4
L: 1/8
R: reel
K: Ador
eaag bgag | egaf gedg | eaag bgag | egdg eAAA |
eaag bgag | egaf ggga | bgaf gfed | Bdef gbag ||
edBA G3A | B/2c/2d ed gbag | edBA G3A | B/2c/2d ed BA Ag |
edBA G3A | B/2c/2d ed gbag | edBA G3A | B/2c/2d ed BA Ad |]
